packages/kaspersky-hexa-ui-icons/src/iconsSVGs/24/SafetyVerdictLow.svg

<svg width="24" height="24" viewBox="0 0 24 24" fill="none" xmlns="http://www.w3.org/2000/svg">
<path d="M12.9427 2.3516C12.3651 2.05174 11.6776 2.05174 11.0999 2.3516L4.53954 5.75693C4.20819 5.92892 4.00024 6.27116 4.00024 6.64448V8.00002H6L6.00024 7.2521L12.0213 4.12671L18.0424 7.2521V8.00002H20L20.0424 8.00031V6.64448C20.0424 6.27116 19.8345 5.92892 19.5031 5.75693L12.9427 2.3516Z" fill="black"/>
<path d="M16.8492 15.7714C17.2036 15.9187 17.5923 16 18 16H19.0145C17.9029 18.1533 16.3977 19.5863 15.1018 20.5022C14.3519 21.0322 13.67 21.3908 13.1697 21.6189C12.9192 21.7331 12.7131 21.815 12.5655 21.8697C12.4916 21.8971 12.4322 21.9176 12.3891 21.9321L12.3623 21.9409L12.3367 21.9492L12.32 21.9544L12.3141 21.9562L12.3117 21.9569L12.3107 21.9572C12.2166 21.9856 12.119 21.9999 12.0213 21.9999C11.9429 21.9999 11.8439 21.9872 11.7681 21.9674L11.7656 21.9668L11.7593 21.9651L11.7418 21.9603L11.7257 21.9558L11.6877 21.9449C11.6434 21.9318 11.5826 21.9131 11.5072 21.8881C11.3565 21.8379 11.1467 21.7621 10.8921 21.6543C10.3836 21.4391 9.69173 21.0949 8.93221 20.5711C7.61894 19.6655 6.1053 18.2235 4.99576 16H6C6.40635 16 6.79383 15.9192 7.14725 15.7728C8.03201 17.2721 9.12015 18.2712 10.0676 18.9246C10.6981 19.3594 11.2669 19.6412 11.6716 19.8125C11.8004 19.867 11.9121 19.9101 12.0034 19.9432C12.0958 19.9064 12.2093 19.8587 12.3402 19.799C12.7461 19.614 13.3159 19.3154 13.9475 18.869C14.8911 18.2021 15.968 17.2093 16.8492 15.7714Z" fill="black"/>
<path d="M4 10C3.44772 10 3 10.4477 3 11V13C3 13.5523 3.44772 14 4 14H6C6.55228 14 7 13.5523 7 13V11C7 10.4477 6.55228 10 6 10H4Z" fill="black"/>
<g opacity="0.4">
<path d="M11 10C10.4477 10 10 10.4477 10 11V13C10 13.5523 10.4477 14 11 14H13C13.5523 14 14 13.5523 14 13V11C14 10.4477 13.5523 10 13 10H11Z" fill="black"/>
<path d="M18 10C17.4477 10 17 10.4477 17 11V13C17 13.5523 17.4477 14 18 14H20C20.5523 14 21 13.5523 21 13V11C21 10.4477 20.5523 10 20 10H18Z" fill="black"/>
</g>
</svg>

<svg xmlns="http://www.w3.org/2000/svg" width="24" height="24" fill="none" viewBox="0 0 24 24"><path d="M3 2h18v20H3z"/><path fill="#000" fill-rule="evenodd" d="M12.9427 2.3516a2 2 0 0 0-1.8428 0L4.5395 5.757a1 1 0 0 0-.5393.8876V8H6l.0002-.748 6.0211-3.1253 6.0211 3.1254V8H20l.0424.0002V6.6445a1 1 0 0 0-.5393-.8876zM4 10c-.5523 0-1 .4477-1 1v2c0 .5523.4477 1 1 1h2c.5523 0 1-.4477 1-1v-2c0-.5523-.4477-1-1-1zm14 6a2.99 2.99 0 0 1-1.1508-.2287 10.51 10.51 0 0 1-2.9017 3.0977c-.6316.4464-1.2014.745-1.6073.93a7.5 7.5 0 0 1-.3368.1442 7 7 0 0 1-.3318-.1308c-.4047-.1712-.9735-.453-1.604-.8878-.9475-.6534-2.0356-1.6525-2.9203-3.1518A2.99 2.99 0 0 1 6 16H4.9958c1.1095 2.2235 2.6231 3.6655 3.9364 4.5711.7595.5238 1.4514.868 1.9599 1.0832.2546.1078.4644.1836.6151.2337.0754.0251.1362.0438.1806.0569l.0379.0109.0161.0045.0175.0048.0063.0016.0025.0007c.0758.0198.1748.0325.2532.0325a1 1 0 0 0 .2894-.0427l.001-.0003.0024-.0007.0059-.0018.0167-.0053.0256-.0082.0268-.0088a6 6 0 0 0 .1764-.0624 9 9 0 0 0 .6042-.2508c.5003-.2281 1.1822-.5867 1.9321-1.1167 1.2959-.9159 2.8011-2.3489 3.9127-4.5022z"/></svg>
